src/next/cmd/32/hidenote.svg

<svg height="32" viewBox="0 0 32 32" width="32" xmlns="http://www.w3.org/2000/svg" xmlns:xlink="http://www.w3.org/1999/xlink"><radialGradient id="a" cx="8" cy="8.201889" gradientTransform="matrix(2.4327881 0 0 2.4240172 -3.821134 920.00488)" gradientUnits="userSpaceOnUse" r="56"><stop offset=".0765" stop-color="#f3c300"/><stop offset=".1887" stop-color="#f7d21f"/><stop offset=".3467" stop-color="#fde446"/><stop offset=".4294" stop-color="#ffeb55"/><stop offset=".6882" stop-color="#ffeb55"/><stop offset=".7281" stop-color="#fee951"/><stop offset=".7641" stop-color="#fde446"/><stop offset=".7987" stop-color="#fadb34"/><stop offset=".8322" stop-color="#f7cf1a"/><stop offset=".8588" stop-color="#f3c300"/><stop offset=".9208" stop-color="#fbd400"/><stop offset=".9706" stop-color="#fd0"/></radialGradient><linearGradient id="b" gradientUnits="userSpaceOnUse" x1="69.627274" x2="96.710617" y1="933.27747" y2="976.61078"><stop offset="0" stop-color="#fff" stop-opacity=".462094"/><stop offset=".5" stop-color="#fff"/><stop offset="1" stop-color="#fff" stop-opacity=".350181"/></linearGradient><filter id="c" color-interpolation-filters="sRGB" height="1.048087" width="1.047914" x="-.023957" y="-.024043"><feGaussianBlur stdDeviation="1.1727546"/></filter><filter id="d" color-interpolation-filters="sRGB" height="1.07213" width="1.07187" x="-.035935" y="-.036065"><feGaussianBlur stdDeviation="1.657823"/></filter><g transform="scale(.25)"><g transform="translate(0 -924.36216)"><path d="m10.76134 931.03388h110.55338v110.52542h-110.55338z" fill="#453500" filter="url(#d)" transform="matrix(.93196255 0 0 .93196255 4.45503 67.170662)"/><path d="m6.8689672 2.9363508 117.3047628-.0000002v117.2850194h-117.3047628z" filter="url(#c)" opacity=".77" transform="matrix(.85262441 0 0 .85262441 10.134893 933.85856)"/><path d="m16 936.36216h100v100.00004h-100z" fill="#e3ad00"/><path d="m16.855659 937.2502h98.288681v98.224h-98.288681z" fill="#fff"/><path d="m17.083333 937.63958 97.833317-.19796v97.84118h-97.833317z" fill="url(#a)"/><path d="m16 936.24936h99.68402v21.30556h-99.68402z" fill="url(#b)"/><g fill="#fff" fill-opacity=".756881"><path d="m62.383255 1016.6146v-2.4994z"/><path d="m102.37121 933.16372v-2.49935z"/></g></g><path d="m14.484375 10.498047v103.003903h29.228516l42.015625-94.109372-.523438-.5625-2.603516 2.603516c.520358-.519905 2.886564-5.176475 5.621094-10.935547z" fill="#525252" fill-opacity=".603922"/><path d="m35.261557 119.21429c2.999999 1.50002 2.339282 1.008 5.477279 2.57602 3.104001-6.718 48.817021-110.303778 51.73702-116.631804-3.002-1.4999808-2.203998-1.1644721-5.342-2.7324848-3.101998 6.7179968-48.952301 110.4622888-51.872299 116.7882688z" fill="#555" stroke-width="2"/></g></svg>

<?xml version="1.0" encoding="UTF-8" standalone="no"?>
<svg
   xmlns:dc="http://purl.org/dc/elements/1.1/"
   xmlns:cc="http://creativecommons.org/ns#"
   xmlns:rdf="http://www.w3.org/1999/02/22-rdf-syntax-ns#"
   xmlns:svg="http://www.w3.org/2000/svg"
   xmlns="http://www.w3.org/2000/svg"
   xmlns:sodipodi="http://sodipodi.sourceforge.net/DTD/sodipodi-0.dtd"
   xmlns:inkscape="http://www.inkscape.org/namespaces/inkscape"
   height="32"
   viewBox="0 0 32 32"
   width="32"
   version="1.1"
   id="svg60"
   sodipodi:docname="hidenote.svg"
   inkscape:version="0.92.4 (unknown)"
   inkscape:export-filename="/home/rizmut/Dokumen/Rizmut/Github/libreoffice-style-karasa-jaga/build/next/cmd/32/hidenote.png"
   inkscape:export-xdpi="96"
   inkscape:export-ydpi="96">
  <metadata
     id="metadata66">
    <rdf:RDF>
      <cc:Work
         rdf:about="">
        <dc:format>image/svg+xml</dc:format>
        <dc:type
           rdf:resource="http://purl.org/dc/dcmitype/StillImage" />
        <dc:title></dc:title>
      </cc:Work>
    </rdf:RDF>
  </metadata>
  <defs
     id="defs64" />
  <sodipodi:namedview
     pagecolor="#ffffff"
     bordercolor="#666666"
     borderopacity="1"
     objecttolerance="10"
     gridtolerance="10"
     guidetolerance="10"
     inkscape:pageopacity="0"
     inkscape:pageshadow="2"
     inkscape:window-width="1366"
     inkscape:window-height="706"
     id="namedview62"
     showgrid="true"
     inkscape:zoom="5.2149126"
     inkscape:cx="25.936552"
     inkscape:cy="21.556388"
     inkscape:window-x="0"
     inkscape:window-y="0"
     inkscape:window-maximized="1"
     inkscape:current-layer="g861">
    <inkscape:grid
       type="xygrid"
       id="grid844" />
  </sodipodi:namedview>
  <radialGradient
     id="a"
     cx="8"
     cy="8.201889"
     gradientTransform="matrix(2.4327881,0,0,2.4240172,-3.821134,920.00488)"
     gradientUnits="userSpaceOnUse"
     r="56">
    <stop
       offset=".0765"
       stop-color="#f3c300"
       id="stop2" />
    <stop
       offset=".1887"
       stop-color="#f7d21f"
       id="stop4" />
    <stop
       offset=".3467"
       stop-color="#fde446"
       id="stop6" />
    <stop
       offset=".4294"
       stop-color="#ffeb55"
       id="stop8" />
    <stop
       offset=".6882"
       stop-color="#ffeb55"
       id="stop10" />
    <stop
       offset=".7281"
       stop-color="#fee951"
       id="stop12" />
    <stop
       offset=".7641"
       stop-color="#fde446"
       id="stop14" />
    <stop
       offset=".7987"
       stop-color="#fadb34"
       id="stop16" />
    <stop
       offset=".8322"
       stop-color="#f7cf1a"
       id="stop18" />
    <stop
       offset=".8588"
       stop-color="#f3c300"
       id="stop20" />
    <stop
       offset=".9208"
       stop-color="#fbd400"
       id="stop22" />
    <stop
       offset=".9706"
       stop-color="#fd0"
       id="stop24" />
  </radialGradient>
  <linearGradient
     id="b"
     gradientUnits="userSpaceOnUse"
     x1="69.627274"
     x2="96.710617"
     y1="933.27747"
     y2="976.61078">
    <stop
       offset="0"
       stop-color="#fff"
       stop-opacity=".462094"
       id="stop27" />
    <stop
       offset=".5"
       stop-color="#fff"
       id="stop29" />
    <stop
       offset="1"
       stop-color="#fff"
       stop-opacity=".350181"
       id="stop31" />
  </linearGradient>
  <filter
     id="c"
     height="1.048087"
     width="1.047914"
     x="-0.023956999"
     y="-0.024042999"
     style="color-interpolation-filters:sRGB">
    <feGaussianBlur
       stdDeviation="1.1727546"
       id="feGaussianBlur34" />
  </filter>
  <filter
     id="d"
     height="1.07213"
     width="1.07187"
     x="-0.035935"
     y="-0.036065001"
     style="color-interpolation-filters:sRGB">
    <feGaussianBlur
       stdDeviation="1.657823"
       id="feGaussianBlur37" />
  </filter>
  <g
     id="g861"
     transform="scale(0.25)">
    <g
       id="g58"
       transform="translate(0,-924.36216)">
      <path
         id="path40"
         transform="matrix(0.93196255,0,0,0.93196255,4.45503,67.170662)"
         d="M 10.76134,931.03388 H 121.31472 V 1041.5593 H 10.76134 Z"
         inkscape:connector-curvature="0"
         style="fill:#453500;filter:url(#d)" />
      <path
         id="path42"
         transform="matrix(0.85262441,0,0,0.85262441,10.134893,933.85856)"
         d="m 6.8689672,2.9363508 117.3047628,-2e-7 V 120.22137 H 6.8689672 Z"
         inkscape:connector-curvature="0"
         style="opacity:0.76999996;filter:url(#c)" />
      <path
         id="path44"
         d="M 16,936.36216 H 116 V 1036.3622 H 16 Z"
         inkscape:connector-curvature="0"
         style="fill:#e3ad00" />
      <path
         id="path46"
         d="m 16.855659,937.2502 h 98.288681 v 98.224 H 16.855659 Z"
         inkscape:connector-curvature="0"
         style="fill:#ffffff" />
      <path
         id="path48"
         d="m 17.083333,937.63958 97.833317,-0.19796 v 97.84118 H 17.083333 Z"
         style="fill:url(#a)"
         inkscape:connector-curvature="0" />
      <path
         id="path50"
         d="m 16,936.24936 h 99.68402 v 21.30556 H 16 Z"
         style="fill:url(#b)"
         inkscape:connector-curvature="0" />
      <g
         id="g56"
         style="fill:#ffffff;fill-opacity:0.756881">
        <path
           id="path52"
           d="m 62.383255,1016.6146 v -2.4994 z"
           inkscape:connector-curvature="0" />
        <path
           id="path54"
           d="m 102.37121,933.16372 v -2.49935 z"
           inkscape:connector-curvature="0" />
      </g>
    </g>
    <path
       id="path900"
       d="M 14.484375,10.498047 V 113.50195 h 29.228516 l 42.015625,-94.109372 -0.523438,-0.5625 -2.603516,2.603516 c 0.520358,-0.519905 2.886564,-5.176475 5.621094,-10.935547 z"
       style="opacity:1;fill:#525252;fill-opacity:0.60392157;stroke:none;stroke-width:9.14318943;stroke-miterlimit:4;stroke-dasharray:none;stroke-opacity:1"
       inkscape:connector-curvature="0" />
    <path
       sodipodi:nodetypes="ccccc"
       inkscape:connector-curvature="0"
       style="overflow:visible;fill:#555555;stroke-width:1.99999988"
       id="path40-3"
       d="m 35.261557,119.21429 c 2.999999,1.50002 2.339282,1.008 5.477279,2.57602 3.104001,-6.718 48.817021,-110.303778 51.73702,-116.631804 -3.002,-1.4999808 -2.203998,-1.1644721 -5.342,-2.7324848 C 84.031858,9.144018 38.181555,112.88831 35.261557,119.21429 Z" />
  </g>
</svg>
